icons/outline/box-padding.svg

<!--
tags: [css, cascading, style, section, space, text, content, website, container, inside]
category: Design
version: "1.39"
unicode: "ee18"
-->
<svg
  xmlns="http://www.w3.org/2000/svg"
  width="24"
  height="24"
  viewBox="0 0 24 24"
  fill="none"
  stroke="currentColor"
  stroke-width="2"
  stroke-linecap="round"
  stroke-linejoin="round"
>
  <path d="M4 4m0 2a2 2 0 0 1 2 -2h12a2 2 0 0 1 2 2v12a2 2 0 0 1 -2 2h-12a2 2 0 0 1 -2 -2zm4 10v.01m0 -4.01v.01m0 -4.01v.01m8 7.99v.01m0 -4.01v.01m0 -4.01v.01m-4 -.01v.01m0 7.99v.01" />
</svg>

<!--
tags: [css, cascading, style, section, space, text, content, website, container, inside]
category: Design
version: "1.39"
unicode: "ee18"
-->
<svg
  xmlns="http://www.w3.org/2000/svg"
  width="24"
  height="24"
  viewBox="0 0 24 24"
  fill="none"
  stroke="currentColor"
  stroke-width="2"
  stroke-linecap="round"
  stroke-linejoin="round"
>
    <path d="M4 4m0 2a2 2 0 0 1 2 -2h12a2 2 0 0 1 2 2v12a2 2 0 0 1 -2 2h-12a2 2 0 0 1 -2 -2zM8 16v.01M8 12v.01M8 8v.01M16 16v.01M16 12v.01M16 8v.01M12 8v.01M12 16v.01" />
</svg>
